X:1
T:Lied ohne Worte
T:Lied ohne Worte
T:Oscar Franz, Op. 2
C:Oscar Franz, Op. 2
%%score ( 1 2 ) { ( 3 5 ) | ( 4 6 ) }
L:1/8
Q:1/4=64
M:3/4
K:Ab
V:1 treble transpose=-7 nm="Horn in F" snm="F Hn."
V:2 treble transpose=-7 
V:3 treble nm="Piano" snm="Pno."
V:5 treble 
V:4 bass 
V:6 bass 
V:1
[K:Eb] z2 | z6 | z6 | z6 | z2 z2!p!!<(! B>B | !breath!c3 (.c .d.e)!<)! | %6
!mp! (e2 !breath!B2)!>(! (AG) | (F2 c2) (BA)!>)! |!p! (A2 !breath!G2)!mf! G>G | %9
!<(! !breath!=A3 (.A .B.c) | !breath!d3 (d fe)!<)! |!f! !breath!.d!>(!(F d3 c) | %12
 !breath!B4!>)!!p! B>B |!<(! !breath!c3 c (3(dfe) | (e2 B2) (AG)!<)! | %15
!>(! (!invertedturn!F2 c2) (.B.A) | (A2 !breath!G2)!>)!!mf! (3.G.F.E | %17
!<(! !breath!c3 c (3(dfe)!<)! |!f! !breath!g4 (3(fec) |!>(! (c2 !breath!B2) (3.A.G.F!>)! | %20
!mf! E2 z2!mf! (G>E) | F2- F/((.D/.E/)=E/) (F/d/c/B/) | (B2 !breath!=A2) (G>_G) | %23
 (F2- (F/=A/)c/d/) (e/g/f/e/) | (^c2 !breath!d2) d>d | (d2- d/!mf!!<(!D/).^F/.=A/ (d/e/d/c/) | %26
 (c2 !breath!_B2) (3dcB | (f2- f/=A/).c/.d/ (e/g/f/e/) | (^c2!<)!!f! d2)!ff! (3!>!d!>!c!>!B | %29
 !breath!d4 (3!>!d!>!c!>!B | !breath!d4!>(! (3!>!c!>!B!>!G | !breath!B4 (=AG) | %32
 (=E2 !breath!F2)!>)!!mf! (3!>!d!>!c!>!B | !breath!d4 (3!>!c!>!B!>!G | %34
 !breath!c4!mf!!>(! (3!>!B!>!=A!>!G | B2- (3B!>!=B!>!c (3(d!fermata!e3/2=A/)!>)! |!p! B2 z2 B>B | %37
 !breath!c3 c (3(.d.f.e) | (e2 !breath!B2) (AG) | (!invertedturn!F2 c2) (BA) | %40
!<(! (A2 !breath!G2) (3(.G.F.E) | !breath!c3 c (3(dfe)!<)! |!f! !breath!g4 (3(.f.e.c) | %43
!>(! (c2 B2) (3(.A.G.F)!>)! |!mp! E4 z2 | z6 | z6 | z6 | z6 | z6 | z6 | z6 | z2 z2!mp! G>G | %53
 c2- (3cGc (3edc | (c>=B) d2 z G | d2- (3d=Bd (3fed | (d>c e2) z!f! c | g2- (3g(.f.e) (3(.e.d.c) | %58
 c2-!>(! (3c(.B.A) (3(.A.G.F) | (3GEC =B,2({CB,=A,B,)}!>)!!mf! !fermata!A>G | C2 z2!mf! G>G | %61
 (c2- c/G/).E/.G/ (c/e/d/c/) | (c/=B/^A/B/) d2 z G | (d2- d/=B/).G/.B/ (d/f/e/d/) | %64
 (d/c/=B/c/)!p! !breath!e2 (c>_B) | (B2- B/!<(!D/).F/.G/ (A/d/c/B/)!<)! | %66
!mf! !breath!B3!mf!!<(! (.=A .B.=B) | (c2-!<)!!f! c/=E/).G/.=A/!mf!!<(! (B/=e/d/c/)!<)! | %68
!f! !breath!c3!f!!<(! (.=B .c.^c)!<)! |!f! (d2- d/D/).^F/.=A/ (d/e/d/c/) | %70
 (c2 !breath!_B2)!<(! (3(dcB) | (f2- f/=A/).c/.d/ (e/g/f/e/)!<)! | %72
!ff! (^c2!f! !breath!d2)!ff! (3!>!d!>!=c!>!_B | !breath!d4 (3!>!d!>!c!>!B | %74
 !breath!d4 (3!>!c!>!B!>!G | !breath!B4 (=AG) | (=E2 !breath!F2)!mf! (3!>!d!>!c!>!B | %77
 !breath!d4 (3!>!c!>!B!>!G | !breath!c4!mf!!>(! (3!>!B!>!=A!>!G | %79
 B2- (3B!>!=B!>!c (3(d!fermata!e3/2=A/)!>)! |!mp! B2 z2!mp! B>B | !breath!c3 c (3(dfe) | %82
 (e2 !breath!B2) (AG) | (!invertedturn!F2 c2) (BA) |!<(! (A2 !breath!G2) (3(.G.F.E) | %85
 !breath!c3 c (3(dfe)!<)! |!mf! !breath!g4 (3(fec) |!>(! (c2 B2) (3(.A.G.F)!>)! | %88
!mp! !breath!E4!pp! G2 | (B4- (3Bcd) | f2!>(! e4- | e6- | !fermata!e6!>)! |] %93
V:2
[K:Eb] x2 | x6 | x6 | x6 | x6 | x6 | x6 | x6 | x6 | x6 | x6 | x6 | x6 | x6 | x6 | x/x/x/x/ z2 x2 | %16
 x6 | x6 | x6 | x6 | x6 | x6 | x6 | x6 | x6 | x6 | x6 | x6 | x6 | x6 | x6 | x6 | x6 | x6 | x6 | %35
 x6 | x6 | x6 | x6 | x/x/x/x/ z4 | x6 | x6 | x6 | x6 | x6 | x6 | x6 | x6 | x6 | x6 | x6 | x6 | x6 | %53
 x6 | x6 | x6 | x6 | x6 | x6 | x6 | x6 | x6 | x6 | x6 | x6 | x6 | x6 | x6 | x6 | x6 | x6 | x6 | %72
 x6 | x6 | x6 | x6 | x6 | x6 | x6 | x6 | x6 | x6 | x6 | x/x/x/x/ z4 | x6 | x6 | x6 | x6 | x6 | x6 | %90
 z2 !tenuto!!fermata!x2 !tenuto!!fermata!x2 | %91
 !tenuto!!fermata!x2 !tenuto!!fermata!x2 !tenuto!!fermata!x2 | %92
 !tenuto!!fermata!x2- !tenuto!!fermata!x2-!ppp! !tenuto!!fermata!x2 |] %93
V:3
!p! E>E | !arpeggio!F3 F!<(! .G.A | AE Ac!<)!!mf! !arpeggio![_Gce]>[FBd] | %3
!mf!!mf!!mf!!>(! (c3 d .B.c) | [CEA]4!>)!!p! z2 |!<(! [A,DF]4 [A,_F]2!<)! |!mf!!>(! E4!>)! z2 | %7
!mf!!>(! F4 E2-!>)! |!p! E4 z2 |!mf!!<(! [A,B,=D]3 .[A,B,D] .[G,B,E].[F,B,F]!<)! | %10
!f!!>(! G4 ([=EB][FA]) | [EG-]4 (GF) | [E,B,E]4 z2!>)! |!p! z/ (F,/D/A,/ F/D/A,/F,/ _F/D/A,/_F,/) | %14
 z/ (A,/C/A,/ E/A,/)!^!C/A,/ !^!D/A,/!^!C/A,/ | z/!<(! (A,/B,/=D/ F/D/B,/A,/) (G,/B,/E/G/)!<)! | %16
!mf!!>(! (G,/B,/E/G/ A/E/C/A,/)!>)!!p! (E/A/E/C/) | z/!<(! A,/D/F/ A/F/D/A,/ A/_F/D/A,/!<)! | %18
!f! z/ C/=E/G/ c/G/E/C/ A,/B,/D/F/ | z/!>(! A,/C/E/ A/E/C/A,/ B,/D/E/G/ | %20
 z/ c/A/E/ =D/F/[_DE]/G/!>)!!mf!!mf!!mf! [CEA]2 | %21
 z/ [B,EG]/[B,EG]/[B,EG]/ [B,EG][B,EG] [B,EG][B,EG] | %22
 z/ [B,EA]/[B,EA]/[B,EA]/ [B,=DA][B,DA] [B,DA][B,DA] | %23
 z/ [B,=DA]/[B,DA]/[B,DA]/ [B,DA][B,DA] [B,EA][B,FA] | %24
 z/!<(! [=A,E^F]/[A,EF]/[A,EF]/ [B,EG][B,EG] [B,EG][B,EG]!<)! | %25
!f! z/ [=B,FG]/[B,FG]/[B,FG]/ [B,FG][B,FG] [B,=DG][B,DG] | %26
 z/ [CEG]/[CEG]/[CEG]/ [CEG][CEG] [G,CE][G,CE] | %27
 z/ [B,=DA]/[B,DA]/[B,DA]/ [B,DA][B,DA] [B,EA][B,FA] | %28
 z/!mf!!<(! [=A,E^F]/[A,EF]/[A,EF]/ [B,EG][B,EG] [B,EG][B,EG]!<)! | %29
!f! z2 (3[gg'][ff'][ee'] [gg']2 | z2 (3[gg'][ff'][ee'] [gg']2 | z2 (3[ff'][ee'][cc'] [=d=d'][cc'] | %32
 ([=A=a]2 [Bb]2) z2 |!mf! (3[gg'][ff'][ee'] [gg']2 [ff']2 | (3[ff'][ee'][cc'] [ff']2 [ee']2 | %35
 (3[ee'][dd'][cc'] [ee']2 !fermata![=d=d']2 |!mf!!>(! (!arpeggio![G,B,ee']2 [A,C]2 [B,D]2)!>)! | %37
!p! z/ .[F,A,D]/.[A,DF]/.[DFA]/ .[FAd].[Adf] .[Ad_f]2 | %38
 z/ .[E,A,C]/.[A,CE]/.[CEA]/ .[EAc].[Ace] [Aa]2 | %39
 z/ .[F,A,B,]/.[A,B,=D]/.[B,DF]/ [DFA][FAB] [EGB]2 | %40
 z/ [G,B,D]/[B,DG]/[DGB]/ [CAc][CFA]!<(! [A,CE]2 | %41
 z/ [F,A,D]/[A,DF]/[DFA]/ [FAd][Adf] [Ad_f]2!<)! | %42
!f! z/ [=E,G,C]/[G,C=E]/[CEG]/ [EGc][CEG] [A,B,F]2 | %43
!>(! z/ [E,A,C]/[A,CE]/[CEA]/ [EAc][Ace] [GBde]2!>)! | %44
!p! z/ [cea]/[Ace]/[EAc]/ [=DFAc][_DEGB] [CEA]>!f![Cc] | [Cc-]2 (3cAc (3(fa).g | %46
 f>=e g2 [cc']>[cc'] | [cc'-]2 (3[cc'][=e=e'][gg'] (3[bb'][aa'].[gg'] | ([gg']>[ff'] [aa']2) c>c | %49
 f>d B2 (3dcB | f>c A2 (3AGF | C>C (D/C/=B,/C/) A>G | [A,CF][A,CF] [A,CF][A,CF] [A,CF][A,CF] | %53
!mp! z!<(! [A,CF] [A,CF][A,CF] [A,CF][A,CF] | z2 ([ff']>[=e=e'] [gg']2) | %55
 z [B,C=E] [B,CE][B,CE] [B,CE][B,CE] | z2 ([gg']>[ff'] [aa']2)!<)! | %57
!mf! z [A,CF] [A,CF][A,CF] [A,CF][A,CF] | z!>(! [A,B,F] [A,B,F][A,B,F] [G,DF][G,DF]!>)! | %59
!p! [A,CF]2 !fermata![B,CG]4 |!mf! [A,CF][A,C] [A,CF][CFA] [A,CF][A,C] | %61
 z [A,C] [A,CF][CFA] [A,CF][A,C] | z [B,C=E] [CEG][EGB] [CEG][B,CE] | %63
 z [B,C=E] [CEG][EGB] [CEG][B,CE] | z [A,C] [A,CF][CFA] [A,CF][A,C] | %65
 z!pp!!<(! [E,B,DE] [E,B,DE][E,B,DE] [E,B,DE][E,B,DE] | %66
 z [E,A,CE] [E,A,CE](.[A,=B,=D] .[A,CE].[A,C=E]) | z [F,CEF] [F,CEF][F,CEF] [F,CEF][F,CEF] | %68
 z [E,B,=DF] [E,B,DF].[B,_D=E] .[B,DF].[B,D^F]!<)! | %69
!f! z/ [G,=DFG]/[G,DFG]/[G,DFG]/ [G,=B,FG][G,B,FG] [G,B,DFG][G,B,DFG] | %70
 z/!<(! [G,CEG]/[G,CEG]/[G,CEG]/ [G,CEG][G,CEG] [G,CE][G,CE] | %71
 z/ [B,=DAB]/[B,DAB]/[B,DAB]/ [B,DAB][B,DAB] [B,EAB][B,FAB] | %72
 z/ [CE^F=A]/[CEFA]/[CEFA]/ [B,EGB][B,EGB] [B,EGB][B,EGB]!<)! |!ff! z2 (3[gg'][ff'][ee'] [gg']2 | %74
 z2 (3[gg'][ff'][ee'] [gg']2 | z2 (3[ff'][ee'][cc'] [=d=d'][cc'] | ([=A=a]2 [Bb]2) z2 | %77
!mf! (3[gg'][ff'][ee'] [gg']2 [ff']2 | (3[ff'][ee'][cc'] [ff']2!p! [ee']2 | %79
 (3[ee'][dd'][cc'] [ee']2!pp! !fermata![=d=d']2 |!mp! ((!arpeggio![G,B,ee']2 [A,C]2 [B,D]2)) | %81
 z/ [F,A,D]/[A,DF]/[DFA]/ [FAd][Adf] [Ad_f]2 | z/ [E,A,C]/[A,CE]/[CEA]/ [EAc][Ace] [Aa]2 | %83
 z/ .[F,A,B,]/.[A,B,=D]/.[B,DF]/ [DFA][DFAc] [_DGBe]2 | %84
 z/ [G,B,D=E]/[B,DEG]/[DEGB]/ [C_EAc][CFA] [_G,A,CE]2 | %85
 z/!<(! [F,A,D]/[A,DF]/[DFA]/ [FAd][Adf] [GBd_f]2!<)! | %86
!mf! z/ [F,A,C]/[A,CE]/[CEA]/ [EAc][CEA] [A,B,=DF]2 | %87
!>(! z/ [G,B,D]/[B,DG]/[CGB]/ [GBd][DGB] [DEG]2!>)! |!mp! [CEA]6 | F2 E4 | %90
 (!arpeggio!G2 A2 !arpeggio![D_FB]2) | [EAc]6- | !fermata![EAc]6 |] %93
V:4
 z2 | !arpeggio![D,A,]4 !arpeggio![D,A,]2 | !arpeggio![C,A,]4 D,2 | CF, E,4 | E,4 z2 | D,4 D,2 | %6
 C,3 .E, .F,.E, | =D,4 E,2 | A,,2 A,,,2 z2 | B,,3 .B,, .C,.=D, | E,4 (G,A,) | B,,4 [B,,,B,,]2 | %12
 E,,4 E,2 | D,4 D,2 | C,3 !^!E, !^!F,!^!E, | =D,4 E,2 | A,,2 A,,,2 [A,,_G,]2 | [D,F,]4 [D,,D,]2 | %18
 [C,,C,]4 [D,,D,]2 | [E,,E,]4 E,,2 | A,,2 B,,E, A,2 | ([E,,E,]4 [G,,G,]2) | [F,,F,]6 | %23
 [B,,,B,,]4 [C,,C,][=D,,=D,] | [E,,E,]6 | [=D,,=D,]4 [G,,,G,,]2 | [C,,C,]6 | %27
 [B,,,B,,]4 [C,,C,][=D,,=D,] | [E,,E,]6 |!ped! [=A,,,=A,,]6!ped-up! |!ped! [B,,,B,,]6!ped-up! | %31
!ped! [B,,,B,,]6!ped-up! |!ped! [E,,E,]6!ped-up! |!ped! [A,,,A,,]6!ped-up! | %34
!ped! [B,,,B,,]6!ped-up! |!ped! [B,,,B,,]6!ped-up! | !arpeggio!E,6 | D,4 D,2 | %38
 C,3 (.[E,A,C] .[F,A,D].[E,A,C]) | =D,4 E,2 | =E,2 F,2 [A,,_G,]2 | [D,F,]4 [D,,D,]2 | %42
 [C,,C,]4 [D,,D,]2 | [E,,E,]4 E,,2 | A,,2 B,,E, A,2 | %45
!ped! z [A,CF] [A,CF][A,CF] [A,CF][A,CF]!ped-up! | %46
!ped! z [G,C=E] [G,CE][G,CE] [G,CE][G,CE]!ped-up! | %47
!ped! z [B,C=E] [B,CE][B,CE] [B,CE][B,CE]!ped-up! | %48
!ped! z [A,CF] [A,CF][A,CF] [A,CF][A,CF]!ped-up! | %49
!ped! z [G,DF] [G,DF][G,DF] [G,DF][G,DF]!ped-up! | %50
!ped! z [A,CF] [A,CF][A,CF] [A,CF][A,CF]!ped-up! | %51
!ped! z [=E,G,B,] [E,G,B,][E,G,B,] [C,,C,]2!ped-up! |!ped! [F,,F,]6!ped-up! | [F,,F,]4 z2 | %54
 z [B,C=E] [B,CE][B,CE] [B,CE][B,CE] | [E,,E,]4 z2 | z [A,CF] [A,CF][A,CF] [A,CF][A,CF] | %57
 [F,,F,]4 [C,,C,]2 | [D,,D,]4 [B,,,B,,]2 | [C,,C,]2 !fermata![C,,C,]4 | %60
 F,2- F,/A,,/C,/F,/ A,/G,/F,/C,/ | [F,,F,]6 | C,2- C,/=E,,/G,,/B,,/ C,/B,,/G,,/E,,/ | [C,,C,]6 | %64
 [F,,F,]2 (G,/F,/=E,/F,/) C,A,, | G,,6 | A,,6 | =A,,6 | B,,6 | =B,,2 [=D,,=D,]2 [G,,,G,,]2 | %70
 [C,,C,]6 | [B,,,B,,]4 [C,,C,][=D,,=D,] | [E,,E,]6 |!ped! [=A,,,=A,,]6 | [B,,,B,,]6!ped-up! | %75
 [B,,,B,,]6 | [E,,E,]6 | [A,,,A,,]6 | [B,,,B,,]6 | [B,,,B,,]6 | !arpeggio!E,6 | %81
!ped! [A,,,A,,]6!ped-up! |!ped! [A,,,A,,]6!ped-up! |!ped! [A,,=D,]4!ped-up! [A,,E,]2 | %84
!ped! [A,,,A,,]6!ped-up! |!ped! [A,,,A,,]6!ped-up! |!ped! [A,,,A,,]6!ped-up! | %87
!ped! [A,,,A,,]6!ped-up! |!ped! (A,,!<(!C, E,A,)!<)!!p!!>(! (3(CB,A,)!ped-up!!>)! | %89
!pp!!<(!!ped! (!arpeggio!E,3 F,!<)!!p!!>(! (3G,F,E,)!ped-up!!>)! |!pp!!ped! (E,4 D,2)!ped-up! | %91
!ped! C,6 | z6!ped-up! |] %93
V:5
 x2 | !arpeggio!D4 [D_F]2 | x6 | [EA][=DA] [_DG]4 | x6 | x6 | %6
 [A,C]3!p!!<(! [A,C] .[A,D].[A,C]!<)! | [A,B,]4 [E,B,]2- | [E,B,]2 [A,C]2 z2 | x6 | B,4 C2 | %11
 B,2 [=A,C]2 [_A,B,=D]2 | x6 | x6 | x6 | x6 | x6 | x6 | x6 | x6 | x6 | x6 | x6 | x6 | x6 | x6 | %26
 x6 | x6 | x6 | z/ [CEG]/[CEG]/[CEG]/ [CEG][CEG] [CEG][CEG] | %30
 z/ [B,EG]/[B,EG]/[B,EG]/ [B,EG][B,EG] [B,EG][B,EG] | %31
 z/ [A,B,F]/[A,B,F]/[A,B,F]/ [A,B,F][A,B,F] [A,B,F][A,B,F] | %32
 z/ [^F,=A,E]/[F,A,E]/[F,A,E]/ [G,B,E][G,B,E] [G,B,E]!mf![G,B,E] | %33
 z/ [A,CG]/[A,CG]/[A,CG]/ [A,CG][A,CG] [A,CF][A,CF] | %34
 z/ [G,B,F]/[G,B,F]/[G,B,F]/ [G,B,F][G,B,F] [_G,__B,CE][G,B,CE] | %35
 z/ [F,A,CE]/[F,A,CE]/[F,A,CE]/ [F,A,CE][F,A,CE] !fermata![F,A,B,=D]2 | !arpeggio!E6 | x6 | %38
 x4 (.d.e) | x6 | x6 | x6 | x6 | x6 | x6 | x6 | x6 | x6 | x6 | x6 | x6 | z4 [CE][_B,CE] | x6 | x6 | %54
 x6 | x6 | x6 | x6 | x6 | x6 | x6 | x6 | x6 | x6 | x6 | x6 | x6 | x6 | x6 | x6 | x6 | x6 | x6 | %73
 z/ [CEG]/[CEG]/[CEG]/ [CEG][CEG] [CEG][CEG] | z/ [B,EG]/[B,EG]/[B,EG]/ [B,EG][B,EG] [B,EG][B,EG] | %75
 z/ [A,B,F]/[A,B,F]/[A,B,F]/ [A,B,F][A,B,F] [A,B,F][A,B,F] | %76
 z/ [^F,=A,E]/[F,A,E]/[F,A,E]/ [G,B,E][G,B,E] [G,B,E]!mf![G,B,E] | %77
 z/ [A,CG]/[A,CG]/!>(![A,CG]/ [A,CG][A,CG] [A,CF]!>)!!mp![A,CF] | %78
 z/ [G,B,F]/[G,B,F]/!>(![G,B,F]/ [G,B,F][G,B,F]!>)! [_G,__B,CE][G,B,CE] | %79
 z/!>(! [F,A,CE]/[F,A,CE]/[F,A,CE]/ [F,A,CE][F,A,CE]!>)! !fermata![F,A,B,=D]2 | !arpeggio!E6 | x6 | %82
 x4 (.de) | x6 | x6 | x6 | x6 | x6 | x6 | [G,D]6 | !arpeggio![CE]4 x2 | x6 | x6 |] %93
V:6
 x2 | x6 | z4 =A,>B, | E,2 E,,4 | A,,2 A,,,2 x2 | x6 | x6 | x6 | x6 | x6 | x6 | x6 | x6 | x6 | x6 | %15
 x6 | x6 | x6 | x6 | x6 | x6 | x6 | x6 | x6 | x6 | x6 | x6 | x6 | x6 | x6 | x6 | x6 | x6 | x6 | %34
 x6 | x6 | x6 | x6 | x6 | x6 | x6 | x6 | x6 | x6 | x6 | [F,,F,]6 | [C,,C,]6 | [C,,C,]6 | [F,,F,]6 | %49
 [B,,,B,,]6 | [C,,C,]6 | [C,,C,]6 | x6 | x6 | [C,,C,]4 z2 | x6 | [F,,F,]4 z2 | x6 | x6 | x6 | %60
 F,,4 z2 | x6 | C,,4 z2 | x6 | x6 | x6 | x6 | x6 | x6 | x6 | x6 | x6 | x6 | x6 | x6 | x6 | x6 | %77
 x6 | x6 | x6 | x6 | x6 | z2 z (.[E,A,C] .[F,A,D].[E,A,C]) | x6 | x6 | x6 | x6 | x6 | [A,,,A,,]6 | %89
 !arpeggio![A,,,A,,]6 | [A,,,-A,,]6 | A,,,2 (E,,2 C,,2 | A,,,6) |] %93

